svgs/open-external.svg

<!-- Generated by IcoMoon.io -->
<svg version="1.1" xmlns="http://www.w3.org/2000/svg" width="1500" height="1500" viewBox="0 0 1500 1500">
<title>open-external</title>
<path d="M1333.33 284.518l-774.406 774.406c-32.543 32.543-85.307 32.543-117.851 0s-32.543-85.307 0-117.851l774.406-774.406h-215.481c-46.024 0-83.333-37.311-83.333-83.333s37.311-83.333 83.333-83.333h416.665c46.024 0 83.333 37.311 83.333 83.333v416.665c0 46.024-37.311 83.333-83.333 83.333s-83.333-37.311-83.333-83.333v-215.481zM1333.33 833.333c0-46.024 37.311-83.333 83.333-83.333s83.333 37.311 83.333 83.333v500.203c0 92.020-74.474 166.462-166.654 166.462h-1166.688c-92.084 0-166.654-74.432-166.654-166.654v-1166.688c0-92.002 74.462-166.654 166.462-166.654h500.203c46.024 0 83.333 37.311 83.333 83.333s-37.311 83.333-83.333 83.333h-499.998v1166.663h1166.663v-499.998z"></path>
</svg>

<svg xmlns="http://www.w3.org/2000/svg" width="1500" height="1500" viewBox="0 0 1500 1500"><path d="M1333.33 284.518l-774.406 774.406c-32.543 32.543-85.307 32.543-117.851 0s-32.543-85.307 0-117.851l774.406-774.406H999.998c-46.024 0-83.333-37.311-83.333-83.333S953.976.001 999.998.001h416.665c46.024 0 83.333 37.311 83.333 83.333v416.665c0 46.024-37.311 83.333-83.333 83.333s-83.333-37.311-83.333-83.333V284.518zm0 548.815c0-46.024 37.311-83.333 83.333-83.333s83.333 37.311 83.333 83.333v500.203c0 92.02-74.474 166.462-166.654 166.462H166.654C74.57 1499.998 0 1425.566 0 1333.344V166.656C0 74.654 74.462.002 166.462.002h500.203c46.024 0 83.333 37.311 83.333 83.333s-37.311 83.333-83.333 83.333H166.667v1166.663H1333.33V833.333z"/></svg>
